X:485
T:Jump at the Sun
N:John Kilpatrick
M:6/8
K:Dm
L:1/8
DFA ^G2 A|DFA ^G2 A|dAA dAA|BAG FGE|\
DFA ^G2 A|DFA ^G2 A|dAA BAG|FGE D3 :|
|: dAA def|eAA gfe|dAA def|eAA B2 A|\
dAA def|eAA gfe|dAA BAG|FGE D3 :|
